X:1
T:James Gibb editions
T:Angelus ad pastores ait - Hassler
T:#
%%score [ 1 2 3 4 ]
L:1/8
Q:1/4=108
M:2/2
K:Eb
V:1 treble nm="Soprano" snm="S"
V:2 treble nm="Alto" snm="A"
V:3 treble-8 nm="Tenor" snm="T"
V:4 bass nm="Bass" snm="B"
V:1
"^Hans Leo Hassler\n(1564-1612)" z8 | z4 c4- | c2"^Angelus ad pastores ait" c2 B4 | c3 d e2 e2 | %4
w: |An\-|* ge- lus|ad pa- sto- res|
 d4 c2 e2- | e2 d2 f2 c2 | (e6 dc | d4) c4 |[M:2/2] z8 | z2 B4 G2 | c2 c2 (BG c2- | c2 =B2 c3 _B | %12
w: a- it, ad|* pa- sto- res|a\- * *|* it,||ad pa-|sto- res a\- * *||
 AG A2) (G4 | F4) z4 | z8 | z8 | z2 B4 G2 | c2 c2 (BG c2- | c2 =B2) c2 e2 | d3 B c2 d2 | e4 z4 | %21
w: * * * it,||||ad pa-|sto- res a\- * *|* * it, An-|nun- ci- o vo-|~bis|
 z4 z2 e2- | ee d4 (c2- | c2 =B2) c2 G2 | A3 B c2 A2 | G4 z4 | z4 z2 A2- | AA G4 (F2- | %28
w: gau\-|* di- um ma\-|* * gnum, an-|nun- ci- o vo-|bis|gau\-|* di- um ma\-|
 F2 =E2) F4- | F8 | z4 z2 c2- | c2 A2 _d2 d2 | c4 z4 | z2 c4 B2 | e2 e2 c4 | f2 f2 (e_dcB | %36
w: * * gnum,||qui\-|* a na- tus|est,|qui- a|na- tus est|vo- bis ho\- * * *|
 A2 GF G2) B2 | B4 z4 | z2 F4 E2 | A2 A2 G2 e2- | e2 c2 (BA A2- | A2 G2 A2 c2 | %42
w: * * * * di-|e,|qui- a|na- tus est vo\-|* bis ho\- * *|* di- e Sal-|
 _d2 c(c- cB/A/ B2) | c4 z4 | z4 z2 G2 | A2 G4 (F2- | F=E/D/) !courtesy!=E2) F2 F2 |: %47
w: va- tor mun\- * * * *|di,|Sal-|va- tor mun\-|* * * * di. Al-|
 (ABcd e2) d2 | c4 z2 A2 | G2 F2 A2 z A | B (c2 =B) c4 | z4 z2 e2 | d2 e2 c2 z d | B2 c2 A2 z B | %54
w: le\- * * * * lu-|ia, al-|le- lu- ia, al-|le- lu\- * ia,|al-|le- lu- ia, al-|le lu- ia, al-|
 G2 A2 G2 c2- | c2 B2 (AG F2- |1 F2 =E2 F2 F2) :|2 %57
w: le- lu- ia, al\-|* le- lu\- * *|* * ia, al足|
[Q:1/4=106] F2[Q:1/4=104] =E2[Q:1/4=102] F2[Q:1/4=99] _d2- || %58
w: \_(lu) * ia, al\-|
[Q:1/4=97] d2[Q:1/4=95] c2[Q:1/4=92] B4 |[Q:1/4=90] !fermata!=A8 |] %60
w: * le- lu-|ia.|
V:2
 F6 F2 | E4 F3 G | A2 A2 G4 | C2 A4 G2 | B2 F2 (A2 GF | G4) F4 | z2 G4 E2 | G2 F2 (E3 D | %8
w: An- ge-|lus ad pa-|sto- res a-|it, ad pa-|sto- res a\- * *|* it,|ad pa-|sto- res a\- *|
[M:2/2] C2 G2) F4 | z2 G4 B2 | A4 G4 | (F3 G A3 G | FE C2- CD E2) | A,2 A4 F2 | E2 D2 (E3 D | %15
w: * * it,|ad pa-|sto- res|a\- * * *||it, ad pa-|sto- res a\- *|
 C2 G2 F4 | E2 (G3 A B2) | A4 G4 | G4 z2 E2 | F3 G A2 F2 | E4 z4 | z4 z2 G2- | GG B2 G4- | %23
w: * it, ad|pa- sto\- * *|res a-|it, An-|nun- ci- o vo-|~bis|gau\-|* di- um ma\-|
 G4 =E2 G2 | F3 D E2 F2 | G4 z4 | z4 z2 C2- | CC E2 C4 | C4 z2 C2- | C2 A,2 _D2 D2 | C2 E3 _DCB, | %31
w: * gnum, an-|nun- ci- o vo-|bis|gau\-|* di- um ma-|gnum, qui\-|* a na- tus|est vo\- * * *|
 A,2) C2 (F3 E | FG A4 GF | E2) F2 G4- | G4 z2 C2- | C2 B,2 E2 E2 | C2 E2- E2 F2 | (G3 A BAGF | %38
w: * bis ho\- *||* di- e,|* qui\-|* a na- tus|est vo\- * bis|ho\- * * * * *|
 E2) F2 G4 | z4 C4- | C2 C2 (_D3 C | B,2 B,2 A,2 A2 | F2 =E2 F4 | =E2 A2 F2 E2 | F4 E2 E2 | %45
w: * di- e,|vo\-|* bis ho\- *|* di- e Sal-|va- tor mun-|di, Sal- va- tor|mun- di, Sal-|
 E2 _D2 C4- | C4 C4 |: z2 A2 G2 F2 | A3 G F4) | z4 z2 A2 | G2 F2 G2 A2 | G2 F2 E2 z G | %52
w: va- tor mun\-|* di.|Al- le- lu-|ia, * *|al-|le- lu- ia, al-|le- lu- ia, al-|
 G2 G2 F2 z F | E2 E2 F2 z D | E2 C2 E2 A2- | A2 G2 (FE/_D/ C2) |1 C8 :|2 C6 F2- || F2 F2 F4 | %59
w: le- lu- ia, al-|le- lu- ia, al-|le- lu- ia, al\-|* le- lu\- * * *|ia,|ia, al\-|* le- lu-|
 !fermata!F8 |] %60
w: ia.|
V:3
 z8 | z8 | z8 | z8 | z8 | z8 | c6 c2 | B4 c3 d |[M:2/2][K:treble-8] e2 e2 d4 | c2 e4 d2 | %10
w: ||||||An- ge-|lus ad pa-|sto- res a-|it, ad pa-|
 f2 c2 (e2 dc | d4) c4- | c4 z4 | c6 c2 | B4 c3 d | e2 e2 d4 | c2 e4 d2 | f2 c2 (e2 dc | d4) c4 | %19
w: sto- res a\- * *|* it,||an- ge-|lus ad pa-|sto- res a-|it, ad pa-|sto- res a\- * *|* it,|
 z8 | z2 c2 d3 e | f2 d2 c2 c2- | cc f2 (e4 | d4) c4 | z8 | z2 c2 B3 G | A2 B2 c2 A2- | AA B2 (A4 | %28
w: |An- nun- ci-|o vo- bis gau\-|* di- um ma\-|* gnum,||an- nun- ci-|o vo- bis gau\-|* di- um ma\-|
 G4 (A3 G | F4) z4 | z8 | z4 z2 B2- | B2 A2 _d2 d2 | c4 e2 d2 | (c3 B/A/) G2) A2 | (F4 G4) | %36
w: * gnum, *|||qui\-|* a na- tus|est vo- bis|ho\- * * * di-|e, *|
 z2 c4 B2 | e2 e2 d2 e2 | c4 d2 B2 | (c3 d e4) | e2 e2 f2 f2 | e4 z2 A2 | B2 c2 _d4 | %43
w: qui- a|na- tus est vo-|bis ho- di-|e * *|vo- bis ho- di-|e Sal-|va- tor mun-|
 c2 c2 d2 c(c- | cB/A/ B2) c2 c2 | c2 B2 (A4 | G4) F4 |: z2 f2 e2 B2 | f2 F2 (ABcd | e2) d2 c2 f2 | %50
w: di, Sal- va- tor mun\-|* * * * di, Sal-|va- tor mun\-|* di.|Al- le- lu-|ia, al- le\- * * *|* lu- ia, al-|
 e2 d2 c2 z A | B (c2 =B) c2 z c | =B2 c2 =A2 z _B | G2 A2 F2 z F | c2 A2 B2 e2- | %55
w: le- lu- ia, al-|le- lu\- * ia, al-|le- lu- ia, al-|le- lu- ia, al-|le- lu- ia, al\-|
 e2 e2 (cB AG/F/ |1 G4 F4 :|2 G4) A2 B2- || B2 c2 _d4 | !fermata!c8 |] %60
w: * le- lu\- * * * *|* ia,|(\_lu)足 ia, al\-|* le- lu-|ia.|
V:4
 z8 | z8 | z8 | z8 | z8 | z8 | z8 | z4 z2 A,2- |[M:2/2] A,2 G,2 B,2 F,2 | (A,2 G,F, G,4) | F,4 z4 | %11
w: |||||||Ad|* pa- sto- res|a\- * * *|it,|
 z4 F,4- | F,2 F,2 E,4 | F,3 G, A,2 A,2 | G,4 C,2 A,2- | A,2 G,2 B,2 F,2 | (A,2 G,F, G,4) | %17
w: an\-|* ge- lus|ad pa- sto- res|a- it, ad|* pa- sto- res|a\- * * *|
 F,4 G,4- | G,4 C,4 | z8 | z2 C2 B,3 G, | A,2 B,2 C2 C,2- | C,C, D,2 (E,3 F, | G,4) C,4 | z8 | %25
w: it, a\-|* it,||An- nun- ci-|o vo- bis gau\-|* di- um ma\- *|* gnum,||
 z2 C,2 D,3 E, | F,2 D,2 C,2 F,2- | F,F, E,2 (A,,3 B,, | C,4 F,4 | z4 z2 F,2- | F,2 E,2 A,2 A,2 | %31
w: an- nun- ci-|o vo- bis gau\-|* di- um ma\- *|* gnum,|qui\-|* a na- tus|
 F,4 (B,,4 | F,6) G,2 | A,2 A,2 G,4 | z2 C,4 A,,2 | _D,2 D,2 C,4- | C,4 z4 | z2 G,4 E,2 | %38
w: est vo\-|* bis|ho- di- e,|qui- a|na- tus est,||qui- a|
 A,2 A,2 G,4 | F,4) C,4 | A,,4 _D,4 | E,4 A,,4 | z8 | z2 A,,2 B,,2 C,2 | _D,4 C,4- | C,8 | %46
w: na- tus est|* vo-|足~bis ho-|di- e||Sal- va- tor|mun- di,||
 C,4 z4 |: z8 | z4 z2 F,2 | E,2 B,,2 F,4 | z4 z2 F,2 | E,2 D,2 C,2 C2 | G,2 C,2 F,2 B,,2 | %53
w: ||Al-|le- lu- ia,|al-|le- lu- ia, al-|le- lu- ia, al-|
 E,2 A,,2 _D,2 B,,2 | C,2 F,2 E,2 A,,2- | A,,2 E,2 F,4 |1 C,4 z4 :|2 C,4 F,2 B,,2- || %58
w: le lu- ia, al-|le- lu- ia, al\-|* le- lu-|ia,|(\_lu)足 ia, al\-|
 B,,2 =A,,2 B,,4 | !fermata!F,8 |] %60
w: * le- lu-|ia.|

